lib/icons/social-trend.svg

<svg width="16" height="16" viewBox="0 0 16 16" fill="none" xmlns="http://www.w3.org/2000/svg">
<path fill-rule="evenodd" clip-rule="evenodd" d="M12.938 12.7065C12.979 12.5374 13.0634 12.3819 13.1829 12.2554C14.3159 11.056 15 9.46915 15 7.73122C15 4.04561 11.8985 1 8 1C4.10152 1 1 4.04561 1 7.73122C1 11.4908 4.16614 14.7578 7.9224 14.4654C8.14987 14.4477 8.45111 14.3761 8.75176 14.289C8.9326 14.2366 9.12234 14.1727 9.29474 14.1245L9.2972 14.1237C9.318 14.1177 9.44655 14.0802 9.5819 14.0727C9.71461 14.0654 9.8239 14.0875 9.84089 14.0909C10.0069 14.1243 10.1557 14.1786 10.3602 14.2493C10.5866 14.3275 10.8769 14.4319 11.1662 14.5372C11.6691 14.7202 12.1822 14.9112 12.3806 14.9852C12.3857 14.9756 12.391 14.9625 12.3952 14.9451L12.938 12.7065ZM13.9099 12.9421L13.367 15.1808C13.2231 15.7744 12.6691 16.1228 12.1353 15.96C12.1224 15.956 12.1111 15.952 12.0984 15.9473C11.8823 15.8665 9.73693 15.0657 9.63708 15.0712C9.53193 15.077 8.66955 15.4103 8 15.4624C3.59264 15.8055 0 12.001 0 7.73122C0 3.46138 3.58172 0 8 0C12.4183 0 16 3.46138 16 7.73122C16 9.73883 15.2082 11.5677 13.9099 12.9421ZM4 6.00024C4 5.7241 4.22386 5.50024 4.5 5.50024H11.4998C11.7759 5.50024 12 5.7241 12 6.00024C12 6.27639 11.7761 6.50024 11.4999 6.50024H4.5C4.22386 6.50024 4 6.27639 4 6.00024ZM4.5 9.49976C4.22386 9.49976 4 9.72361 4 9.99976C4 10.2759 4.22386 10.4998 4.5 10.4998H11.5C11.7761 10.4998 12 10.2759 12 9.99976C12 9.72361 11.7761 9.49976 11.5 9.49976H4.5Z" fill="#8358FF"/>
</svg>

<svg width="16" height="16" fill="none" xmlns="http://www.w3.org/2000/svg"><path fill-rule="evenodd" clip-rule="evenodd" d="M12.938 12.707a1 1 0 0 1 .245-.452A6.562 6.562 0 0 0 15 7.731C15 4.046 11.899 1 8 1 4.102 1 1 4.046 1 7.731c0 3.76 3.166 7.027 6.922 6.734.228-.017.53-.089.83-.176.18-.052.37-.116.543-.165h.002c.021-.006.15-.044.285-.051.133-.008.242.014.259.018.166.033.315.088.52.158.226.079.516.183.805.288.503.183 1.016.374 1.215.448a.17.17 0 0 0 .014-.04l.543-2.239Zm.972.235-.543 2.239c-.144.593-.698.942-1.232.779a.698.698 0 0 1-.037-.013c-.216-.08-2.361-.881-2.46-.876-.106.006-.968.34-1.638.391-4.407.344-8-3.461-8-7.73C0 3.461 3.582 0 8 0s8 3.461 8 7.731a7.562 7.562 0 0 1-2.09 5.211ZM4 6a.5.5 0 0 1 .5-.5h7a.5.5 0 0 1 0 1h-7A.5.5 0 0 1 4 6Zm.5 3.5a.5.5 0 1 0 0 1h7a.5.5 0 0 0 0-1h-7Z" fill="#8358FF"/></svg>
